!!!COM: Mozart
!!!OTL: Zwolf Variationen in C uber ein Menuett von Johann Christian Fischer
!!!Variation: Variation 11 c2
**function	**harm	**kern	**kern
*	*	*clefF4	*clefG2
*	*	*k[]	*k[]
*M3/4	*M3/4	*M3/4	*M3/4
*C:	*C:	*C:	*C:
=309	=309	=309	=309
2.D	2.V	4GG	4.dd
.	.	4G 4B	.
.	.	.	(32cc#LLL
.	.	.	32dd
.	.	.	32ee
.	.	.	32ddJJJ
.	.	4G 4B 4d	16ccLL
.	.	.	16b
.	.	.	16a
.	.	.	16gJJ)
=310	=310	=310	=310
2.D	2.Ic	4G 4B 4d#	(4dd#
.	.	4G 4c 4e	8ee)
.	.	.	8r
.	.	4G 4c# 4e	24r
.	.	.	24ggLL
.	.	.	24ffJ
.	.	.	24eeL
.	.	.	24ff
.	.	.	24ggJJ
=311	=311	=311	=311
2.D	2.V7	4G 4c# 4e	8.eeL
.	.	.	32ggLL
.	.	.	32ffJJJ
*	*	*^	*
.	.	2G	4d 4f	4ff
.	.	.	4d# 4f#	4ff#
*	*	*v	*v	*
*	*	*clefG2	*
=312	=312	=312	=312
2T	2I	4c 4e 4g	[4gg
.	.	4c 4e 4g	16ggLL]
.	.	.	16gg#
.	.	.	16aa
.	.	.	16bbJJ
4T	4IVc	4c 4f 4a	16dddLL
.	.	.	16ccc
.	.	.	16bb
.	.	.	16aaJJ)
=313	=313	=313	=313
2T	2I	4c 4e 4g	(16aaLL
.	.	.	16ff#J
.	.	.	[8ggJ)
.	.	4c 4e 4g	16ggLL]
.	.	.	16gg#
.	.	.	16aa
.	.	.	16bbJJ
4T	4IVc	4c 4f 4a	(32cccLLL
.	.	.	32bb
.	.	.	32ccc
.	.	.	32bbJJ
.	.	.	32dddLL
.	.	.	32ccc
.	.	.	32bb
.	.	.	32aaJJJ)
=314	=314	=314	=314
4T	4Ib	4e 4g	(8ggL
.	.	.	8ccJ
4T	4V7c	4d 4g	8bL
.	.	.	8ffJ)
4T	4I	4c 4g	32r
.	.	.	(32eeLLL
.	.	.	32gg
.	.	.	32ff#JJ
.	.	.	32aaLL
.	.	.	32gg
.	.	.	32ff
.	.	.	32eeJJJ)
*	*	*clefF4	*
=315	=315	=315	=315
2T	2V	4G 4B 4g	(8ddL
.	.	.	8bJ)
.	.	4G 4B 4d	(8aL
.	.	.	8gJ)
4T	4V7d	4F 4B 4d	32r
.	.	.	32gLLL
.	.	.	32a
.	.	.	32bJJ
.	.	.	32ccLL
.	.	.	32dd
.	.	.	32ee
.	.	.	32ffJJJ
=316	=316	=316	=316
4T	4Ib	4E 4G 4c	(8ggL
.	.	.	8ccJ
4T	4V7c	4D 4G 4B	8bL
.	.	.	8ffJ)
4T	4I	4C 4G 4c	16.r
.	.	.	32eeL
.	.	.	8eeJ
=317	=317	=317	=317
*	*	*^	*
2D	2Cc	[4e	2G	[4gg
.	.	16eLL]	.	16ggLL]
.	.	32d#L	.	32ff#L
.	.	32eJJ	.	32ggJJ
.	.	(32fLL	.	(32aaLL
.	.	32e	.	32gg
.	.	32d#	.	32ff
.	.	32cJJJ)	.	32eeJJJ)
4D	4V	8B	4r	8dd
.	.	8r	.	8r
*	*	*v	*v	*
*-	*-	*-	*-
